icons/folder-scala-open.svg

<svg style="clip-rule:evenodd;fill-rule:evenodd;stroke-linejoin:round;stroke-miterlimit:2" version="1.1" viewBox="0 0 24 24" xml:space="preserve" xmlns="http://www.w3.org/2000/svg">
    <path d="m19 20h-15c-1.11 0-2-0.9-2-2v-12c0-1.11 0.89-2 2-2h6l2 2h7c1.097 0 2 0.903 2 2h-17v10l2.14-8h17.07l-2.28 8.5c-0.23 0.87-1.01 1.5-1.93 1.5z" style="fill-rule:nonzero;fill:#f44336"/>
    <g transform="translate(.028235 .028235)">
        <path d="m20.732 9s1e-3 2.624 1e-3 2.79c0 0.023-8e-3 0.046-0.022 0.064-0.043 0.083-0.151 0.245-0.389 0.351-0.15 0.067-0.865 0.484-3.126 0.794-1.956 0.268-3.017 0.41-3.519 0.487-0.448 0.069-0.409 0.133-0.409 0.133v-2.736c0-0.046 0.031-0.087 0.077-0.098 0.136-0.037 0.48-0.116 1.232-0.205 1.519-0.18 3.36-0.464 4.801-0.817 1.363-0.333 1.354-0.763 1.354-0.763z" style="fill:#ffcdd2"/>
        <path d="m20.732 12.763s1e-3 2.624 1e-3 2.79c0 0.023-8e-3 0.045-0.022 0.063-0.043 0.083-0.151 0.245-0.389 0.351-0.15 0.067-0.865 0.484-3.126 0.795-1.956 0.268-3.017 0.409-3.519 0.486-0.448 0.069-0.409 0.133-0.409 0.133v-2.735c0-0.047 0.031-0.087 0.077-0.098 0.136-0.038 0.48-0.116 1.232-0.205 1.519-0.18 3.36-0.465 4.801-0.817 1.363-0.333 1.354-0.763 1.354-0.763z" style="fill:#ffcdd2"/>
        <path d="m20.732 16.381s1e-3 2.624 1e-3 2.791c0 0.023-8e-3 0.045-0.022 0.063-0.043 0.083-0.151 0.245-0.389 0.351-0.15 0.067-0.865 0.484-3.126 0.794-1.956 0.269-3.017 0.41-3.519 0.487-0.448 0.069-0.409 0.133-0.409 0.133v-2.736c0-0.046 0.031-0.087 0.077-0.098 0.136-0.037 0.48-0.116 1.232-0.205 1.519-0.179 3.36-0.464 4.801-0.816 1.363-0.334 1.354-0.764 1.354-0.764z" style="fill:#ffcdd2"/>
    </g>
</svg>

<?xml version="1.0" encoding="UTF-8" standalone="no"?>
<!DOCTYPE svg PUBLIC "-//W3C//DTD SVG 1.1//EN" "http://www.w3.org/Graphics/SVG/1.1/DTD/svg11.dtd">
<svg width="100%" height="100%" viewBox="0 0 24 24" version="1.1" xmlns="http://www.w3.org/2000/svg" xmlns:xlink="http://www.w3.org/1999/xlink" xml:space="preserve" xmlns:serif="http://www.serif.com/" style="fill-rule:evenodd;clip-rule:evenodd;stroke-linejoin:round;stroke-miterlimit:2;">
    <path d="M19,20L4,20C2.89,20 2,19.1 2,18L2,6C2,4.89 2.89,4 4,4L10,4L12,6L19,6C20.097,6 21,6.903 21,8L4,8L4,18L6.14,10L23.21,10L20.93,18.5C20.7,19.37 19.92,20 19,20Z" style="fill:#f44336;fill-rule:nonzero;"/>
    <g>
        <path d="M20.732,9C20.732,9 20.733,11.624 20.733,11.79C20.733,11.813 20.725,11.836 20.711,11.854C20.668,11.937 20.56,12.099 20.322,12.205C20.172,12.272 19.457,12.689 17.196,12.999C15.24,13.267 14.179,13.409 13.677,13.486C13.229,13.555 13.268,13.619 13.268,13.619L13.268,10.883C13.268,10.837 13.299,10.796 13.345,10.785C13.481,10.748 13.825,10.669 14.577,10.58C16.096,10.4 17.937,10.116 19.378,9.763C20.741,9.43 20.732,9 20.732,9Z" style="fill:#ffcdd2;"/>
        <path d="M20.732,12.763C20.732,12.763 20.733,15.387 20.733,15.553C20.733,15.576 20.725,15.598 20.711,15.616C20.668,15.699 20.56,15.861 20.322,15.967C20.172,16.034 19.457,16.451 17.196,16.762C15.24,17.03 14.179,17.171 13.677,17.248C13.229,17.317 13.268,17.381 13.268,17.381L13.268,14.646C13.268,14.599 13.299,14.559 13.345,14.548C13.481,14.51 13.825,14.432 14.577,14.343C16.096,14.163 17.937,13.878 19.378,13.526C20.741,13.193 20.732,12.763 20.732,12.763Z" style="fill:#ffcdd2;"/>
        <path d="M20.732,16.381C20.732,16.381 20.733,19.005 20.733,19.172C20.733,19.195 20.725,19.217 20.711,19.235C20.668,19.318 20.56,19.48 20.322,19.586C20.172,19.653 19.457,20.07 17.196,20.38C15.24,20.649 14.179,20.79 13.677,20.867C13.229,20.936 13.268,21 13.268,21L13.268,18.264C13.268,18.218 13.299,18.177 13.345,18.166C13.481,18.129 13.825,18.05 14.577,17.961C16.096,17.782 17.937,17.497 19.378,17.145C20.741,16.811 20.732,16.381 20.732,16.381Z" style="fill:#ffcdd2;"/>
    </g>
</svg>
